X:1
T: The Merry Sisters
C:
R:Reel
Q: 232
K:D
M:4/4
L:1/8
BE ((3FED) Bd cA|BE ((3FED) dA FA|BE ((3FED) Bd cA|dD ((3DDD) AD FA|
BE ((3FED) Bd cA|BE ((3FED) dA FA|BE ((3FED) Bd cA|df ec dA FA|
Be ec d2 cA|Be ec dA FA|Be ec d2 cA|BA Bc dA FA|
Be ec d2 cA|Be ec de fg|((3agf) ((3gfe) fd ec|BA Bc dA FA|
Bd cA BF AF|BE ((3EEE) BE FA|Bd cA BF AF|dD ((3DDD) AD FA|
Bd cA BF AF|BE ((3EEE) BE FA|DF Ac d2 eg|fd ec dA FA|
BE ((3FED) Bd cA|BE ((3FED) dA FA|BE ((3FED) Bd cA|dD ((3DDD) AD FA|
BE ((3FED) Bd cA|BE ((3FED) dA FA|BE ((3FED) Bd cA|df ec d2 d2||
